X:172
T:Rattling Bog
M:4/4
L:1/8
K:G
GA | B4 B3 A | G2 E2 E4 | D2 G2 GFGA |
B2 A2 A4 | B4 B3 A | G2 E2 E4 | D2 d2 d3 c | B2 A2 G2 :|
|: GA | B2 G2 A2 GA | B2 G2 A2 GA | B2 d2 d3 c |
B2 A2 A2 GA | B2 G2 A2 GA | B2 G2 A2 GA | B2 d2 d3 c | B2 A2 G2 :|

